local/share/icons/dracula-icons-main/scalable/apps/gtkwave.svg

<?xml version="1.0" encoding="UTF-8"?>
<svg width="64" height="64" version="1.1" viewBox="0 0 16.933 16.933" xmlns="http://www.w3.org/2000/svg" xmlns:cc="http://creativecommons.org/ns#" xmlns:dc="http://purl.org/dc/elements/1.1/" xmlns:rdf="http://www.w3.org/1999/02/22-rdf-syntax-ns#">
 <metadata>
  <rdf:RDF>
   <cc:Work rdf:about="">
    <dc:format>image/svg+xml</dc:format>
    <dc:type rdf:resource="http://purl.org/dc/dcmitype/StillImage"/>
    <dc:title/>
   </cc:Work>
  </rdf:RDF>
 </metadata>
 <circle cx="8.467" cy="8.46" r="7.144" fill="#3f3f3f" style="paint-order:fill markers stroke"/>
 <path d="m8.4671 1.3229v2.174h-2.174v-1.8343c-0.10466 0.033542-0.20809 0.068638-0.31058 0.10684v1.7277h-2.174v-0.44661c-0.10746 0.092552-0.20902 0.19256-0.31058 0.29132v0.15529h-0.15529c-0.098768 0.10156-0.19877 0.20312-0.29132 0.31058h0.44661v2.174h-1.7277c-0.0382 0.10249-0.0733 0.20591-0.10683 0.31058h1.8343v2.174h-2.174c0 0.10373 0.0053 0.20778 0.0096 0.31058h2.1644v2.174h-1.7277c0.03944 0.10622 0.08199 0.20684 0.12609 0.31058h1.6013v2.174h-0.15529c0.14939 0.15405 0.30313 0.30623 0.46587 0.44661v-0.13603h2.174v1.4172c0.10249 0.0382 0.20591 0.0733 0.31058 0.10683v-1.5237h2.174v1.8635c0.10373 0 0.20778-0.0053 0.31058-0.0096v-1.8538h2.174v1.4172c0.10622-0.03944 0.20684-0.08199 0.31058-0.1261v-1.2908h2.0188c0.16215-0.14784 0.31806-0.30375 0.46589-0.46587v-2.0188h1.2908c0.0441-0.10373 0.08666-0.20436 0.1261-0.31058h-1.4172v-2.1741h1.8538c0.0043-0.1028 0.0096-0.20684 0.0096-0.31058h-1.8635v-2.174h1.5237c-0.033508-0.10467-0.068606-0.20809-0.10682-0.31058h-1.4172v-2.174h0.13603c-0.14007-0.16274-0.29225-0.31648-0.44661-0.46587v0.15529h-2.174v-1.6013c-0.10374-0.044102-0.20436-0.086651-0.31058-0.12609v1.7277h-2.174v-2.1644c-0.1028-0.00434-0.20685-0.00963-0.31058-0.00963zm-4.6587 2.4846h2.174v2.174h-2.174v-2.174m2.4846 0h2.174v2.174h-2.174v-2.174m2.4846 0h2.174v2.174h-2.174v-2.174m2.4846 0h2.174v2.174h-2.174v-2.174m-7.4539 2.4846h2.174v2.174h-2.174zm2.4846 0h2.174v2.174h-2.174zm2.4846 0h2.174v2.174h-2.174zm2.4846 0h2.174v2.174h-2.174zm-7.4539 2.4846h2.174v2.174h-2.174zm2.4846 0h2.174v2.174h-2.174zm2.4846 0h2.174v2.174h-2.174zm2.4846 0h2.174v2.174h-2.174zm-7.4539 2.4846h2.174v2.174h-2.174zm2.4846 0h2.174v2.174h-2.174zm2.4846 0h2.174v2.174h-2.174zm2.4846 0h2.174v2.174h-2.174z" fill="#427e49" stroke-width=".31058"/>
 <g transform="matrix(1.1739 0 0 1.1739 10.849 -.9291)" fill="#fff">
  <path d="m-2.0293 4.5641c-0.14049 0-0.21325 0.089427-0.24394 0.13493-0.030691 0.045507-0.043126 0.079638-0.055297 0.11536-0.024341 0.071172-0.040216 0.14711-0.056884 0.24077-0.033337 0.18732-0.063763 0.4392-0.093661 0.74003-0.11059 1.2628-0.18679 2.4161-0.28125 3.5858-0.10028-0.93661-0.16192-1.8856-0.27172-2.8101-0.030956-0.25796-0.062176-0.47412-0.0971-0.63816-0.017462-0.082019-0.034395-0.14949-0.061382-0.21642-0.013494-0.033601-0.028045-0.067467-0.062441-0.11059-0.034395-0.043126-0.11033-0.11536-0.23151-0.11536-0.093661 0-0.16642 0.046301-0.20558 0.083077-0.039422 0.036776-0.059265 0.069584-0.075934 0.099746-0.033337 0.060588-0.051857 0.11694-0.071436 0.18282-0.038893 0.13176-0.072494 0.29739-0.10636 0.4945-0.13044 0.83527-0.22145 1.6033-0.33548 2.3838-0.069055-0.44925-0.10795-0.92417-0.1643-1.3668-0.017991-0.13943-0.035454-0.25691-0.055297-0.35083-0.00979-0.047095-0.018785-0.086782-0.037306-0.13388-0.00926-0.023547-0.018785-0.048682-0.047624-0.086782-0.028839-0.038099-0.098423-0.1143-0.22383-0.1143-0.096571 0-0.15213 0.038628-0.18812 0.066145-0.035983 0.027516-0.057413 0.052386-0.077521 0.076992-0.039952 0.048947-0.070643 0.098687-0.10292 0.15451-0.064557 0.11192-0.13097 0.24632-0.19632 0.37835-0.065615 0.13202-0.13044 0.26193-0.18097 0.34766-0.010583 0.017727-0.014023 0.021431-0.022754 0.03466h-2.532c-0.0037 0.08784-0.00661 0.17594-0.00661 0.26458 0 0.088634 0.00291 0.17674 0.00661 0.26458h2.6392c0.18362 0 0.22383-0.089957 0.26458-0.13943 0.041539-0.049476 0.073288-0.10028 0.10636-0.15663 0.051857-0.088105 0.10371-0.19367 0.15557-0.29712 0.027252 0.23362 0.054238 0.47836 0.085723 0.75537 0.041539 0.36565 0.087311 0.73235 0.14155 1.0197 0.027252 0.14367 0.055297 0.26458 0.093925 0.37147 0.019314 0.052916 0.039422 0.10213 0.079638 0.15716 0.040216 0.055032 0.12409 0.14155 0.26193 0.14155 0.093661 0 0.16642-0.0463 0.20558-0.08308 0.039422-0.03678 0.059266-0.069584 0.075934-0.099746 0.033337-0.060588 0.051857-0.11694 0.071436-0.18282 0.038893-0.13176 0.072494-0.29739 0.10636-0.4945 0.11827-0.76992 0.20743-1.4681 0.30585-2.1725 0.12435 1.1131 0.186 2.1777 0.31617 3.2752 0.030956 0.25796 0.062176 0.47412 0.0971 0.63816 0.017462 0.08202 0.034395 0.14949 0.061382 0.21642 0.013494 0.0336 0.028045 0.06747 0.062441 0.11059 0.034395 0.04313 0.11086 0.11536 0.23204 0.11536 0.14049 0 0.21272-0.08943 0.24341-0.13493 0.030691-0.04551 0.043126-0.07964 0.055297-0.11536 0.024341-0.07117 0.040745-0.14711 0.057413-0.24077 0.033337-0.18732 0.063234-0.4392 0.093131-0.74002 0.10424-1.1975 0.17965-2.2807 0.26458-3.3765 0.099481 1.1295 0.15637 2.2595 0.26458 3.3765 0.029633 0.30083 0.059795 0.5527 0.093132 0.74002 0.016668 0.09366 0.032808 0.1696 0.057413 0.24077 0.012171 0.03572 0.024606 0.06985 0.055297 0.11536s0.10292 0.13493 0.24341 0.13493c0.12118 0 0.19764-0.07197 0.23204-0.11536 0.034395-0.04313 0.048947-0.07699 0.062441-0.11059 0.027251-0.06694 0.04392-0.13441 0.061382-0.21642 0.034924-0.16404 0.066145-0.3802 0.0971-0.63816 0.12541-1.1443 0.20452-2.1981 0.31617-3.2752 0.11297 0.72494 0.18468 1.4591 0.30585 2.1725 0.033866 0.19711 0.067467 0.36274 0.10636 0.4945 0.019314 0.06588 0.038099 0.1225 0.071436 0.18282 0.016668 0.030162 0.036512 0.062705 0.075934 0.099746 0.039422 0.03678 0.11192 0.08308 0.20558 0.08308 0.13785 0 0.22172-0.08652 0.26193-0.14155 0.040216-0.055032 0.060059-0.10424 0.079638-0.15716 0.038893-0.10583 0.066938-0.22807 0.093925-0.37147 0.054503-0.28733 0.10001-0.65377 0.14155-1.0197 0.032543-0.28548 0.060588-0.54027 0.088369-0.77812 0.052386 0.10954 0.10451 0.22119 0.15663 0.31458 0.03122 0.056091 0.061382 0.10583 0.10133 0.1561 0.039951 0.050005 0.079109 0.14525 0.26722 0.14525h2.6392c0.0037-0.08784 0.0066-0.17594 0.0066-0.26458 0-0.088634-0.0029-0.17674-0.0066-0.26458h-2.5265c-0.0074082-0.011906-0.010054-0.014287-0.01852-0.029368-0.047889-0.086252-0.10954-0.21642-0.17356-0.34977s-0.12991-0.26934-0.19896-0.38496c-0.03466-0.057678-0.068526-0.11006-0.11536-0.16166-0.04683-0.051593-0.10927-0.13229-0.26775-0.13229-0.12541 0-0.19499 0.075934-0.22383 0.1143-0.028839 0.038099-0.038364 0.063234-0.047624 0.086782-0.018256 0.047095-0.027252 0.086782-0.037306 0.13388-0.019843 0.093925-0.037306 0.2114-0.055297 0.35083-0.035982 0.27886-0.073023 0.64213-0.1143 1.0041-0.015081 0.13388-0.033866 0.23442-0.050005 0.36274-0.12779-0.80458-0.20081-1.5901-0.33549-2.3838-0.033866-0.19711-0.067467-0.36274-0.10636-0.4945-0.019314-0.06588-0.038099-0.1225-0.071436-0.18282-0.016668-0.030162-0.036512-0.062705-0.075934-0.099746-0.039422-0.036776-0.11192-0.083078-0.20558-0.083078-0.12118 0-0.19711 0.071965-0.23151 0.11536-0.034395 0.043126-0.048947 0.076992-0.062441 0.11059-0.027252 0.066938-0.04392 0.13441-0.061382 0.21642-0.034924 0.16404-0.066145 0.3802-0.0971 0.63816-0.10662 0.99931-0.18547 1.8997-0.27172 2.8101-0.10874-1.2089-0.16483-2.3891-0.28125-3.5858-0.029633-0.30083-0.060059-0.5527-0.093661-0.74002-0.016668-0.093661-0.032278-0.16959-0.056884-0.24077-0.012171-0.035718-0.024606-0.069849-0.055297-0.11536-0.030691-0.045508-0.10345-0.13493-0.24394-0.13493z" fill="#b2e567" stroke-width=".26458"/>
 </g>
 <path transform="scale(.26458)" d="m31.973 4.9746a27.001 27.001 0 0 0-26.973 27 27.001 27.001 0 0 0 27.002 27.002 27.001 27.001 0 0 0 27.002-27.002 27.001 27.001 0 0 0-27.002-27 27.001 27.001 0 0 0-0.029297 0zm-0.16211 3.0254a23.975 23.975 0 0 1 0.19141 0 23.975 23.975 0 0 1 23.975 23.975 23.975 23.975 0 0 1-23.975 23.977 23.975 23.975 0 0 1-23.975-23.977 23.975 23.975 0 0 1 23.783-23.975z" fill="#333" stroke-width="3.7796" style="paint-order:fill markers stroke"/>
</svg>

<?xml version="1.0" encoding="UTF-8"?>
<svg xmlns="http://www.w3.org/2000/svg" xmlns:xlink="http://www.w3.org/1999/xlink" width="64" height="64" viewBox="0 0 64 64">
<path fill-rule="nonzero" fill="rgb(24.705882%, 24.705882%, 24.705882%)" fill-opacity="1" d="M 15.609375 8.460938 C 15.609375 12.40625 12.414062 15.605469 8.46875 15.605469 C 4.519531 15.605469 1.324219 12.40625 1.324219 8.460938 C 1.324219 4.515625 4.519531 1.316406 8.46875 1.316406 C 12.414062 1.316406 15.609375 4.515625 15.609375 8.460938 Z M 15.609375 8.460938 "/>
<path fill-rule="nonzero" fill="rgb(25.882353%, 49.411765%, 28.627451%)" fill-opacity="1" d="M 8.46875 1.324219 L 8.46875 3.496094 L 6.292969 3.496094 L 6.292969 1.664062 C 6.1875 1.695312 6.085938 1.730469 5.984375 1.769531 L 5.984375 3.496094 L 3.808594 3.496094 L 3.808594 3.050781 C 3.699219 3.144531 3.597656 3.242188 3.496094 3.34375 L 3.496094 3.496094 L 3.34375 3.496094 C 3.242188 3.597656 3.144531 3.699219 3.050781 3.808594 L 3.496094 3.808594 L 3.496094 5.980469 L 1.769531 5.980469 C 1.730469 6.085938 1.695312 6.1875 1.664062 6.292969 L 3.496094 6.292969 L 3.496094 8.464844 L 1.324219 8.464844 C 1.324219 8.570312 1.328125 8.675781 1.332031 8.777344 L 3.496094 8.777344 L 3.496094 10.949219 L 1.769531 10.949219 C 1.808594 11.058594 1.851562 11.15625 1.894531 11.261719 L 3.496094 11.261719 L 3.496094 13.433594 L 3.34375 13.433594 C 3.492188 13.589844 3.644531 13.742188 3.808594 13.882812 L 3.808594 13.746094 L 5.980469 13.746094 L 5.980469 15.164062 C 6.085938 15.203125 6.1875 15.238281 6.292969 15.269531 L 6.292969 13.746094 L 8.464844 13.746094 L 8.464844 15.609375 C 8.570312 15.609375 8.675781 15.605469 8.777344 15.601562 L 8.777344 13.746094 L 10.949219 13.746094 L 10.949219 15.164062 C 11.058594 15.125 11.15625 15.082031 11.261719 15.039062 L 11.261719 13.746094 L 13.28125 13.746094 C 13.441406 13.597656 13.597656 13.441406 13.746094 13.28125 L 13.746094 11.261719 L 15.039062 11.261719 C 15.082031 11.160156 15.125 11.058594 15.164062 10.953125 L 13.746094 10.953125 L 13.746094 8.777344 L 15.601562 8.777344 C 15.605469 8.675781 15.609375 8.570312 15.609375 8.46875 L 13.746094 8.46875 L 13.746094 6.292969 L 15.269531 6.292969 C 15.234375 6.1875 15.199219 6.085938 15.164062 5.980469 L 13.746094 5.980469 L 13.746094 3.808594 L 13.882812 3.808594 C 13.742188 3.644531 13.589844 3.492188 13.433594 3.34375 L 13.433594 3.496094 L 11.261719 3.496094 L 11.261719 1.894531 C 11.15625 1.851562 11.058594 1.808594 10.949219 1.769531 L 10.949219 3.496094 L 8.777344 3.496094 L 8.777344 1.332031 C 8.671875 1.328125 8.570312 1.324219 8.464844 1.324219 Z M 3.808594 3.808594 L 5.980469 3.808594 L 5.980469 5.980469 L 3.808594 5.980469 L 3.808594 3.808594 M 6.292969 3.808594 L 8.46875 3.808594 L 8.46875 5.980469 L 6.292969 5.980469 L 6.292969 3.808594 M 8.777344 3.808594 L 10.953125 3.808594 L 10.953125 5.980469 L 8.777344 5.980469 L 8.777344 3.808594 M 11.261719 3.808594 L 13.4375 3.808594 L 13.4375 5.980469 L 11.261719 5.980469 L 11.261719 3.808594 M 3.808594 6.292969 L 5.980469 6.292969 L 5.980469 8.464844 L 3.808594 8.464844 Z M 6.292969 6.292969 L 8.46875 6.292969 L 8.46875 8.464844 L 6.292969 8.464844 Z M 8.777344 6.292969 L 10.953125 6.292969 L 10.953125 8.464844 L 8.777344 8.464844 Z M 11.261719 6.292969 L 13.4375 6.292969 L 13.4375 8.464844 L 11.261719 8.464844 Z M 3.808594 8.777344 L 5.980469 8.777344 L 5.980469 10.949219 L 3.808594 10.949219 Z M 6.292969 8.777344 L 8.46875 8.777344 L 8.46875 10.949219 L 6.292969 10.949219 Z M 8.777344 8.777344 L 10.953125 8.777344 L 10.953125 10.949219 L 8.777344 10.949219 Z M 11.261719 8.777344 L 13.4375 8.777344 L 13.4375 10.949219 L 11.261719 10.949219 Z M 3.808594 11.261719 L 5.980469 11.261719 L 5.980469 13.433594 L 3.808594 13.433594 Z M 6.292969 11.261719 L 8.464844 11.261719 L 8.464844 13.433594 L 6.292969 13.433594 Z M 8.777344 11.261719 L 10.953125 11.261719 L 10.953125 13.433594 L 8.777344 13.433594 Z M 11.261719 11.261719 L 13.4375 11.261719 L 13.4375 13.433594 L 11.261719 13.433594 Z M 11.261719 11.261719 "/>
<path fill-rule="nonzero" fill="rgb(69.803922%, 89.803922%, 40.392157%)" fill-opacity="1" d="M 8.46875 4.429688 C 8.300781 4.429688 8.214844 4.535156 8.179688 4.585938 C 8.144531 4.640625 8.128906 4.679688 8.117188 4.722656 C 8.085938 4.804688 8.066406 4.894531 8.046875 5.003906 C 8.007812 5.226562 7.972656 5.519531 7.9375 5.875 C 7.808594 7.355469 7.71875 8.710938 7.609375 10.082031 C 7.492188 8.984375 7.417969 7.871094 7.289062 6.785156 C 7.253906 6.480469 7.214844 6.226562 7.175781 6.035156 C 7.15625 5.9375 7.136719 5.859375 7.105469 5.78125 C 7.085938 5.742188 7.070312 5.703125 7.03125 5.652344 C 6.988281 5.601562 6.902344 5.515625 6.757812 5.515625 C 6.648438 5.515625 6.5625 5.570312 6.515625 5.613281 C 6.472656 5.65625 6.449219 5.695312 6.429688 5.730469 C 6.390625 5.800781 6.367188 5.867188 6.34375 5.945312 C 6.296875 6.101562 6.257812 6.292969 6.21875 6.527344 C 6.066406 7.507812 5.960938 8.40625 5.824219 9.324219 C 5.746094 8.796875 5.699219 8.238281 5.632812 7.71875 C 5.613281 7.554688 5.589844 7.417969 5.566406 7.308594 C 5.554688 7.253906 5.546875 7.207031 5.523438 7.152344 C 5.511719 7.121094 5.5 7.09375 5.46875 7.046875 C 5.433594 7.003906 5.351562 6.914062 5.207031 6.914062 C 5.09375 6.914062 5.027344 6.960938 4.984375 6.992188 C 4.941406 7.023438 4.917969 7.054688 4.894531 7.082031 C 4.847656 7.140625 4.8125 7.199219 4.773438 7.265625 C 4.695312 7.394531 4.617188 7.554688 4.542969 7.707031 C 4.464844 7.863281 4.390625 8.015625 4.328125 8.117188 C 4.316406 8.136719 4.3125 8.140625 4.304688 8.15625 L 1.332031 8.15625 C 1.328125 8.261719 1.324219 8.363281 1.324219 8.46875 C 1.324219 8.570312 1.328125 8.675781 1.332031 8.777344 L 4.429688 8.777344 C 4.644531 8.777344 4.691406 8.671875 4.738281 8.613281 C 4.789062 8.554688 4.824219 8.496094 4.863281 8.429688 C 4.925781 8.328125 4.984375 8.203125 5.046875 8.082031 C 5.078125 8.355469 5.109375 8.644531 5.148438 8.96875 C 5.195312 9.398438 5.25 9.828125 5.3125 10.164062 C 5.347656 10.335938 5.378906 10.476562 5.425781 10.601562 C 5.445312 10.664062 5.46875 10.722656 5.515625 10.785156 C 5.566406 10.851562 5.664062 10.953125 5.824219 10.953125 C 5.933594 10.953125 6.019531 10.898438 6.066406 10.855469 C 6.113281 10.8125 6.136719 10.773438 6.15625 10.738281 C 6.195312 10.667969 6.214844 10.601562 6.238281 10.523438 C 6.285156 10.367188 6.324219 10.175781 6.363281 9.941406 C 6.503906 9.039062 6.609375 8.21875 6.722656 7.390625 C 6.871094 8.699219 6.941406 9.949219 7.09375 11.238281 C 7.128906 11.539062 7.167969 11.792969 7.207031 11.984375 C 7.230469 12.082031 7.25 12.160156 7.28125 12.238281 C 7.296875 12.28125 7.3125 12.320312 7.355469 12.371094 C 7.394531 12.421875 7.484375 12.503906 7.625 12.503906 C 7.792969 12.503906 7.875 12.402344 7.910156 12.347656 C 7.949219 12.292969 7.960938 12.253906 7.976562 12.210938 C 8.003906 12.128906 8.023438 12.039062 8.042969 11.929688 C 8.082031 11.710938 8.117188 11.414062 8.152344 11.058594 C 8.277344 9.65625 8.363281 8.382812 8.464844 7.097656 C 8.582031 8.421875 8.648438 9.75 8.773438 11.058594 C 8.808594 11.414062 8.84375 11.710938 8.882812 11.929688 C 8.902344 12.039062 8.921875 12.128906 8.953125 12.210938 C 8.964844 12.253906 8.980469 12.292969 9.015625 12.347656 C 9.050781 12.402344 9.136719 12.503906 9.300781 12.503906 C 9.445312 12.503906 9.535156 12.421875 9.574219 12.371094 C 9.613281 12.320312 9.632812 12.28125 9.648438 12.238281 C 9.679688 12.160156 9.699219 12.082031 9.71875 11.984375 C 9.761719 11.792969 9.796875 11.539062 9.832031 11.238281 C 9.980469 9.894531 10.074219 8.65625 10.203125 7.390625 C 10.335938 8.242188 10.421875 9.105469 10.5625 9.941406 C 10.605469 10.175781 10.644531 10.367188 10.6875 10.523438 C 10.710938 10.601562 10.734375 10.667969 10.773438 10.738281 C 10.792969 10.773438 10.816406 10.8125 10.863281 10.855469 C 10.90625 10.898438 10.992188 10.953125 11.101562 10.953125 C 11.265625 10.953125 11.363281 10.851562 11.410156 10.785156 C 11.457031 10.722656 11.480469 10.664062 11.503906 10.601562 C 11.550781 10.476562 11.582031 10.332031 11.613281 10.164062 C 11.679688 9.828125 11.730469 9.398438 11.78125 8.96875 C 11.820312 8.632812 11.851562 8.335938 11.882812 8.054688 C 11.945312 8.183594 12.007812 8.316406 12.066406 8.425781 C 12.105469 8.488281 12.140625 8.546875 12.1875 8.609375 C 12.234375 8.667969 12.28125 8.777344 12.5 8.777344 L 15.597656 8.777344 C 15.601562 8.675781 15.605469 8.570312 15.605469 8.46875 C 15.605469 8.363281 15.601562 8.261719 15.597656 8.15625 L 12.632812 8.15625 C 12.625 8.144531 12.621094 8.140625 12.613281 8.121094 C 12.554688 8.019531 12.484375 7.867188 12.40625 7.710938 C 12.332031 7.554688 12.253906 7.394531 12.175781 7.261719 C 12.132812 7.191406 12.09375 7.128906 12.039062 7.070312 C 11.984375 7.007812 11.910156 6.914062 11.722656 6.914062 C 11.578125 6.914062 11.496094 7.003906 11.460938 7.050781 C 11.425781 7.09375 11.417969 7.125 11.40625 7.152344 C 11.382812 7.207031 11.375 7.253906 11.363281 7.308594 C 11.339844 7.417969 11.316406 7.554688 11.296875 7.71875 C 11.253906 8.046875 11.210938 8.472656 11.164062 8.898438 C 11.144531 9.054688 11.121094 9.171875 11.105469 9.324219 C 10.953125 8.378906 10.867188 7.457031 10.710938 6.527344 C 10.671875 6.292969 10.632812 6.101562 10.585938 5.945312 C 10.5625 5.867188 10.539062 5.800781 10.5 5.730469 C 10.480469 5.695312 10.457031 5.65625 10.414062 5.613281 C 10.367188 5.570312 10.28125 5.515625 10.171875 5.515625 C 10.027344 5.515625 9.941406 5.601562 9.898438 5.652344 C 9.859375 5.703125 9.84375 5.742188 9.824219 5.78125 C 9.792969 5.859375 9.773438 5.9375 9.753906 6.035156 C 9.714844 6.226562 9.675781 6.480469 9.640625 6.785156 C 9.515625 7.957031 9.421875 9.015625 9.320312 10.082031 C 9.191406 8.664062 9.128906 7.277344 8.992188 5.875 C 8.957031 5.519531 8.921875 5.226562 8.878906 5.003906 C 8.859375 4.894531 8.84375 4.804688 8.8125 4.722656 C 8.800781 4.679688 8.785156 4.640625 8.75 4.585938 C 8.714844 4.535156 8.628906 4.429688 8.460938 4.429688 Z M 8.46875 4.429688 "/>
<path fill-rule="nonzero" fill="rgb(20%, 20%, 20%)" fill-opacity="1" d="M 8.460938 1.316406 C 4.515625 1.320312 1.324219 4.515625 1.324219 8.460938 C 1.324219 12.40625 4.519531 15.605469 8.46875 15.605469 C 12.414062 15.605469 15.613281 12.40625 15.609375 8.460938 C 15.609375 4.515625 12.414062 1.316406 8.46875 1.316406 C 8.464844 1.316406 8.460938 1.316406 8.460938 1.316406 Z M 8.417969 2.117188 C 8.433594 2.117188 8.449219 2.117188 8.46875 2.117188 C 11.96875 2.117188 14.808594 4.957031 14.808594 8.460938 C 14.8125 11.964844 11.96875 14.804688 8.46875 14.804688 C 4.964844 14.804688 2.125 11.964844 2.125 8.460938 C 2.125 4.976562 4.933594 2.144531 8.417969 2.117188 Z M 8.417969 2.117188 "/>
</svg>
